src/assets/img/wedding/wedding.svg

<svg xmlns:xlink="http://www.w3.org/1999/xlink" height="58.5" width="59" xmlns="http://www.w3.org/2000/svg"><use height="58.45" transform="translate(0 .05)" width="59" xlink:href="#a"/><defs><linearGradient gradientTransform="matrix(.0044 .0044 -.004 .004 31.9 20.2)" gradientUnits="userSpaceOnUse" id="b" spreadMethod="pad" x1="-819.2" x2="819.2"><stop offset="0" stop-color="#f39"/><stop offset="1" stop-color="#830143"/></linearGradient><linearGradient gradientTransform="matrix(.0028 -.0028 .0028 .0028 13.6 20)" gradientUnits="userSpaceOnUse" id="c" spreadMethod="pad" x1="-819.2" x2="819.2"><stop offset="0" stop-color="#f39"/><stop offset=".471" stop-color="#fff"/><stop offset="1" stop-color="#f39"/></linearGradient><linearGradient gradientTransform="matrix(.0075 0 0 .0034 30 23.2)" gradientUnits="userSpaceOnUse" id="d" spreadMethod="pad" x1="-819.2" x2="819.2"><stop offset="0" stop-color="#f39"/><stop offset=".471" stop-color="#fff"/><stop offset="1" stop-color="#f39"/></linearGradient><linearGradient gradientTransform="matrix(.0015 .0015 -.0047 .0047 25.1 30.1)" gradientUnits="userSpaceOnUse" id="e" spreadMethod="pad" x1="-819.2" x2="819.2"><stop offset="0" stop-color="#f39"/><stop offset="1" stop-color="#830143"/></linearGradient><linearGradient gradientTransform="matrix(.0019 -.0032 .0082 .0047 30.75 29.25)" gradientUnits="userSpaceOnUse" id="f" spreadMethod="pad" x1="-819.2" x2="819.2"><stop offset="0" stop-color="#f39"/><stop offset="1" stop-color="#830143"/></linearGradient><linearGradient gradientTransform="matrix(.0026 .0045 -.0048 .0028 44.5 28.2)" gradientUnits="userSpaceOnUse" id="g" spreadMethod="pad" x1="-819.2" x2="819.2"><stop offset="0" stop-color="#f39"/><stop offset=".471" stop-color="#fff"/><stop offset="1" stop-color="#f39"/></linearGradient><linearGradient gradientTransform="matrix(-.0043 -.0043 .0049 -.0049 30.8 40.1)" gradientUnits="userSpaceOnUse" id="h" spreadMethod="pad" x1="-819.2" x2="819.2"><stop offset="0" stop-color="#f39"/><stop offset="1" stop-color="#830143"/></linearGradient><linearGradient gradientTransform="matrix(.0095 0 0 .0049 24.25 41.05)" gradientUnits="userSpaceOnUse" id="i" spreadMethod="pad" x1="-819.2" x2="819.2"><stop offset="0" stop-color="#f39"/><stop offset=".471" stop-color="#fff"/><stop offset="1" stop-color="#f39"/></linearGradient><g id="a"><path d="M50.85 23.5 57 27.3l-5.9 4.15 4.55 5.6L48.7 39l2.3 6.8-7.25-.6-.1 7.3-6.55-3.1-2.65 6.75-5.1-5.15-4.75 5.5-3.1-6.55-6.35 3.45-.6-7.2-7.2 1.15L9.2 40.3l-7.1-1.35 4.1-5.9L0 29.2l5.95-4.1-4.55-5.65 7-1.95-2.3-6.8 7.2.6.1-7.25 6.65 3L22.6.35l5.2 5.1 4.75-5.4L35.6 6.5l6.35-3.4.65 7.15 7.15-1.05-1.85 6.95 7.1 1.4-4.15 5.95m-31.5 6.45q0 1.3.5 1.65l.1-.05h-.1q-.4-.2-.5-1.6m17.2 1.2h.15-.15L36 31q-1.75-.8-3.45-.3l-1 .3 1-.25q1.7-.55 3.4.25l.6.15m-11.4-3.8.1.15.25-.15h-.35m.25 2.8h-.15l-.1.05h.2l.05-.05m-.1.9.85.05-.85-.05-2.65-.25-.45.15.4-.1 2.7.2" fill="#fff" fill-rule="evenodd" transform="translate(1 .95)"/><path d="m51.85 24.45 6.15 3.8-5.9 4.15 4.55 5.6-6.95 1.95 2.3 6.8-7.25-.6-.1 7.3-6.55-3.1-2.65 6.75-5.1-5.15-4.75 5.5-3.1-6.55-6.35 3.45-.6-7.2-7.2 1.15 1.85-7.05-7.1-1.35L7.2 34 1 30.15l5.95-4.1L2.4 20.4l7-1.95-2.3-6.8 7.2.6.1-7.25 6.65 3 2.55-6.7 5.2 5.1L33.55 1l3.05 6.45 6.35-3.4.65 7.15 7.15-1.05-1.85 6.95 7.1 1.4-4.15 5.95Z" fill="none" stroke="#f09" stroke-linecap="round" stroke-linejoin="round" stroke-width="2"/><path d="M48.25 32.75q-.85 2.3-3 3.9l-2.05 1.2-2.65 1.65Q38 41.4 37.2 44.4l-.25 1.15-.1 1v.25l-.35-.25-.1-3.3.05-.1-.05.05q-.85-.05-.1-.1h.15q.9-2.5 2.75-3.9l2.1-1.3 1.65-1q2-1.5 2.6-3.7l.1-.45h2.6m-30.5-.45-2.2-1.3-2.05-1.25Q11 27.9 10.25 25.1q-.55-2.05.1-3.8l2.9 1.95q-.5 1.4-.05 3.05.6 2.25 2.6 3.7l1.65 1 1.1.7-.8.6m-.95-15.55 2.25.3q1.9.55 2.95 1.9v1.8l-1.75-.9-3.1-.05-.35.1v-3.15m19.35 7.85.45 1.5q1.05-1.6 3.1-2.2l.6-.15v2.75l-1.8.2q-1.65.5-2.5 1.75l-.4-1.4-.65-1.1 1.2-1.35" fill="#f39" fill-rule="evenodd" transform="translate(1 .95)"/><path d="m33.25 15.1.15.1h-.15v-.1m-7.9 6.95.15-.05v.05h-.15" fill="#c36" fill-rule="evenodd" transform="translate(1 .95)"/><path d="m22 18.95.15.25.55-1.75q1.2-2.8 4.25-3.65 2.6-.7 5 .45l.8.45.1.05.4.35v.1h.15l.3.3q1 1 1.4 2.5l.3 2.4-.05 1.1-.25 1.25q-.75-.95-1.85-1.5l-.15-.65q-.35-1.2-1.1-2l-.3-.25h-.1v-.05l-.3-.25-.1-.1-.65-.35q-1.9-.9-4-.3-2.4.6-3.4 2.9l-.4 1.4-.75-.85v-1.8" fill="url(#b)" fill-rule="evenodd" transform="translate(1 .95)"/><path d="M10.35 21.3q.2-.65.55-1.2l.05-.05.1-.15.05-.1.2-.3.1-.05.05-.1.1-.15.05-.05.05-.1 1.1-.8.9-.7h.05l1.45-.6 1.65-.2v3.15l-.85.35-.05.05-.7.5-.9.65v.1l-.05.05-.05.1-.1.1-.05.05-.15.25-.1.05-.05.1v.05l-.5.95-2.9-1.95" fill="url(#c)" fill-rule="evenodd" transform="translate(1 .95)"/><path d="m35.1 22.75.95 1.55.1.3-1.2 1.35-.65-.7q-.55-.5-1.2-.8l-.9-.3q-2.1-.55-4 .35l-.65.35-.05.05-.35.3v.05h-.1l-.25.2-2.95-1.25q.4-1.05 1.2-1.8l.3-.35h.15V22l.4-.35.1-.1.8-.45q2.4-1.1 5-.4l1.45.55q1.1.55 1.85 1.5" fill="url(#d)" fill-rule="evenodd" transform="translate(1 .95)"/><path d="m23.85 24.2 2.95 1.25v.05q-.8.8-1.1 2-.3.9-.25 1.9l.05.9q.2 1.85 1.3 4l-.8.75q-2.2-3.6-2.6-6.65l-.05-1.1q0-1.25.3-2.45l.2-.65" fill="url(#e)" fill-rule="evenodd" transform="translate(1 .95)"/><path d="M33.1 24.45q.65.3 1.2.8-1 2.3-2.85 4.9L29 33.2v-1.35l1.15-1.5q2.3-3.2 2.95-5.9" fill="url(#f)" fill-rule="evenodd" transform="translate(1 .95)"/><path d="m40.3 23.75 3.3.1 1.45.6h.1l.85.65 1.1.85.05.05.05.1.1.15.05.1.1.05.2.3.1.1.05.1.05.1q1.4 2.2.65 5l-.25.75h-2.6q.35-2-.6-3.55l-.05-.05-.05-.1-.1-.1-.15-.25-.05-.05-.05-.05-.1-.1-.05-.1v-.05l-.9-.65-.7-.55h-.05l-1.2-.45-1.3-.2v-2.75" fill="url(#g)" fill-rule="evenodd" transform="translate(1 .95)"/><path d="m36.5 46.55-1.9-1.6q-4.4-3.95-7.25-7.9l-.85-1.2.75-.75 1.35 2.1q2.15 2.95 7.7 5.9-.75.05.1.1v.05l.1 3.3" fill="url(#h)" fill-rule="evenodd" transform="translate(1 .95)"/><path d="m26.5 35.85-2.35 2.2-2.25 1.9v-.3l-.1-.95-.25-1.2q-.8-3-3.35-4.9l-.45-.3.8-.6 1 .6q3.05 1.6 3.9 3.6l.2 1.45.55-.55 1.8-1.75.8-.75 2.2-2.45v1.35l-1.75 1.9-.75.75" fill="url(#i)" fill-rule="evenodd" transform="translate(1 .95)"/></g></defs></svg>

<?xml version="1.0" encoding="UTF-8" standalone="no"?>
<svg xmlns:xlink="http://www.w3.org/1999/xlink" height="58.5px" width="59.0px" xmlns="http://www.w3.org/2000/svg">
  <g transform="matrix(1.0, 0.0, 0.0, 1.0, 1.0, 1.0)">
    <use height="58.45" transform="matrix(1.0, 0.0, 0.0, 1.0, -1.0, -0.95)" width="59.0" xlink:href="#shape0"/>
  </g>
  <defs>
    <g id="shape0" transform="matrix(1.0, 0.0, 0.0, 1.0, 1.0, 0.95)">
      <path d="M50.85 23.5 L57.0 27.3 51.1 31.45 55.65 37.05 48.7 39.0 51.0 45.8 43.75 45.2 43.65 52.5 37.1 49.4 34.45 56.15 29.35 51.0 24.6 56.5 21.5 49.95 15.15 53.4 14.55 46.2 7.35 47.35 9.2 40.3 2.1 38.95 6.2 33.05 0.0 29.2 5.95 25.1 1.4 19.45 8.4 17.5 6.1 10.7 13.3 11.3 13.4 4.05 20.05 7.05 22.6 0.35 27.8 5.45 32.55 0.05 35.6 6.5 41.95 3.1 42.6 10.25 49.75 9.2 47.9 16.15 55.0 17.55 50.85 23.5 M19.35 29.95 Q19.35 31.25 19.85 31.6 L19.95 31.55 19.85 31.55 Q19.45 31.35 19.35 29.95 M36.55 31.15 L36.7 31.15 36.55 31.15 36.0 31.0 Q34.25 30.2 32.55 30.7 L31.55 31.0 32.55 30.75 Q34.25 30.2 35.95 31.0 L36.55 31.15 M25.15 27.35 L25.25 27.5 25.5 27.35 25.15 27.35 M25.4 30.15 L25.35 30.15 25.25 30.15 25.15 30.2 25.35 30.2 25.4 30.15 M25.3 31.05 L26.15 31.1 25.3 31.05 22.65 30.8 22.2 30.95 22.6 30.85 25.3 31.05" fill="#ffffff" fill-rule="evenodd" stroke="none"/>
      <path d="M50.85 23.5 L57.0 27.3 51.1 31.45 55.65 37.05 48.7 39.0 51.0 45.8 43.75 45.2 43.65 52.5 37.1 49.4 34.45 56.15 29.35 51.0 24.6 56.5 21.5 49.95 15.15 53.4 14.55 46.2 7.35 47.35 9.2 40.3 2.1 38.95 6.2 33.05 0.0 29.2 5.95 25.1 1.4 19.45 8.4 17.5 6.1 10.7 13.3 11.3 13.4 4.05 20.05 7.05 22.6 0.35 27.8 5.45 32.55 0.05 35.6 6.5 41.95 3.1 42.6 10.25 49.75 9.2 47.9 16.15 55.0 17.55 50.85 23.5 Z" fill="none" stroke="#ff0099" stroke-linecap="round" stroke-linejoin="round" stroke-width="2.0"/>
      <path d="M48.25 32.75 Q47.4 35.05 45.25 36.65 L43.2 37.85 40.55 39.5 Q38.0 41.4 37.2 44.4 L36.95 45.55 36.85 46.55 36.85 46.8 36.5 46.55 36.4 43.25 36.45 43.15 36.4 43.2 Q35.55 43.15 36.3 43.1 L36.45 43.1 Q37.35 40.6 39.2 39.2 L41.3 37.9 42.95 36.9 Q44.95 35.4 45.55 33.2 L45.65 32.75 48.25 32.75 M17.75 32.3 L15.55 31.0 13.5 29.75 Q11.0 27.9 10.25 25.1 9.7 23.05 10.35 21.3 L13.25 23.25 Q12.75 24.65 13.2 26.3 13.8 28.55 15.8 30.0 L17.45 31.0 18.55 31.7 17.75 32.3 M16.8 16.75 L19.05 17.05 Q20.95 17.6 22.0 18.95 L22.0 20.75 20.25 19.85 17.15 19.8 16.8 19.9 16.8 16.75 M36.15 24.6 L36.6 26.1 Q37.65 24.5 39.7 23.9 L40.3 23.75 40.3 26.5 38.5 26.7 Q36.85 27.2 36.0 28.45 L35.6 27.05 34.95 25.95 36.15 24.6" fill="#ff3399" fill-rule="evenodd" stroke="none"/>
      <path d="M33.25 15.1 L33.4 15.2 33.25 15.2 33.25 15.1 M25.35 22.05 L25.5 22.0 25.5 22.05 25.35 22.05" fill="#cc3366" fill-rule="evenodd" stroke="none"/>
      <path d="M22.0 18.95 L22.15 19.2 22.7 17.45 Q23.9 14.65 26.95 13.8 29.55 13.1 31.95 14.25 L32.75 14.7 32.85 14.75 33.25 15.1 33.25 15.2 33.4 15.2 33.7 15.5 Q34.7 16.5 35.1 18.0 L35.4 20.4 35.35 21.5 35.1 22.75 Q34.35 21.8 33.25 21.25 L33.1 20.6 Q32.75 19.4 32.0 18.6 L31.7 18.35 31.6 18.35 31.6 18.3 31.3 18.05 31.2 17.95 30.55 17.6 Q28.65 16.7 26.55 17.3 24.15 17.9 23.15 20.2 L22.75 21.6 22.0 20.75 22.0 18.95" fill="url(#gradient0)" fill-rule="evenodd" stroke="none"/>
      <path d="M10.35 21.3 Q10.55 20.65 10.9 20.1 L10.95 20.05 11.05 19.9 11.1 19.8 11.3 19.5 11.4 19.45 11.45 19.35 11.55 19.2 11.6 19.15 11.65 19.05 12.75 18.25 13.65 17.55 13.7 17.55 15.15 16.95 16.8 16.75 16.8 19.9 15.95 20.25 15.9 20.3 15.2 20.8 14.3 21.45 14.3 21.55 14.25 21.6 14.2 21.7 14.1 21.8 14.05 21.85 13.9 22.1 13.8 22.15 13.75 22.25 13.75 22.3 13.25 23.25 10.35 21.3" fill="url(#gradient1)" fill-rule="evenodd" stroke="none"/>
      <path d="M35.1 22.75 L36.05 24.3 36.15 24.6 34.95 25.95 34.3 25.25 Q33.75 24.75 33.1 24.45 L32.2 24.15 Q30.1 23.6 28.2 24.5 L27.55 24.85 27.5 24.9 27.15 25.2 27.15 25.25 27.05 25.25 26.8 25.45 23.85 24.2 Q24.25 23.15 25.05 22.4 L25.35 22.05 25.5 22.05 25.5 22.0 25.9 21.65 26.0 21.55 26.8 21.1 Q29.2 20.0 31.8 20.7 L33.25 21.25 Q34.35 21.8 35.1 22.75" fill="url(#gradient2)" fill-rule="evenodd" stroke="none"/>
      <path d="M23.85 24.2 L26.8 25.45 26.8 25.5 Q26.0 26.3 25.7 27.5 25.4 28.4 25.45 29.4 L25.5 30.3 Q25.7 32.15 26.8 34.3 L26.0 35.05 Q23.8 31.45 23.4 28.4 L23.35 27.3 Q23.35 26.05 23.65 24.85 L23.85 24.2" fill="url(#gradient3)" fill-rule="evenodd" stroke="none"/>
      <path d="M33.1 24.45 Q33.75 24.75 34.3 25.25 33.3 27.55 31.45 30.15 L29.0 33.2 29.0 31.85 30.15 30.35 Q32.45 27.15 33.1 24.45" fill="url(#gradient4)" fill-rule="evenodd" stroke="none"/>
      <path d="M40.3 23.75 L43.6 23.85 45.05 24.45 45.15 24.45 46.0 25.1 47.1 25.95 47.15 26.0 47.2 26.1 47.3 26.25 47.35 26.35 47.45 26.4 47.65 26.7 47.75 26.8 47.8 26.9 47.85 27.0 Q49.25 29.2 48.5 32.0 L48.25 32.75 45.65 32.75 Q46.0 30.75 45.05 29.2 L45.0 29.15 44.95 29.05 44.85 28.95 44.7 28.7 44.65 28.65 44.6 28.6 44.5 28.5 44.45 28.4 44.45 28.35 43.55 27.7 42.85 27.15 42.8 27.15 41.6 26.7 40.3 26.5 40.3 23.75" fill="url(#gradient5)" fill-rule="evenodd" stroke="none"/>
      <path d="M36.5 46.55 L34.6 44.95 Q30.2 41.0 27.35 37.05 L26.5 35.85 27.25 35.1 28.6 37.2 Q30.75 40.15 36.3 43.1 35.55 43.15 36.4 43.2 L36.4 43.25 36.5 46.55" fill="url(#gradient6)" fill-rule="evenodd" stroke="none"/>
      <path d="M26.5 35.85 L24.15 38.05 21.9 39.95 21.9 39.65 21.8 38.7 21.55 37.5 Q20.75 34.5 18.2 32.6 L17.75 32.3 18.55 31.7 19.55 32.3 Q22.6 33.9 23.45 35.9 L23.65 37.35 24.2 36.8 26.0 35.05 26.8 34.3 29.0 31.85 29.0 33.2 27.25 35.1 26.5 35.85" fill="url(#gradient7)" fill-rule="evenodd" stroke="none"/>
    </g>
    <linearGradient gradientTransform="matrix(0.0044, 0.0044, -0.004, 0.004, 31.9, 20.2)" gradientUnits="userSpaceOnUse" id="gradient0" spreadMethod="pad" x1="-819.2" x2="819.2">
      <stop offset="0.0" stop-color="#ff3399"/>
      <stop offset="1.0" stop-color="#830143"/>
    </linearGradient>
    <linearGradient gradientTransform="matrix(0.0028, -0.0028, 0.0028, 0.0028, 13.6, 20.0)" gradientUnits="userSpaceOnUse" id="gradient1" spreadMethod="pad" x1="-819.2" x2="819.2">
      <stop offset="0.0" stop-color="#ff3399"/>
      <stop offset="0.47058823529411764" stop-color="#ffffff"/>
      <stop offset="1.0" stop-color="#ff3399"/>
    </linearGradient>
    <linearGradient gradientTransform="matrix(0.0075, 0.0, 0.0, 0.0034, 30.0, 23.2)" gradientUnits="userSpaceOnUse" id="gradient2" spreadMethod="pad" x1="-819.2" x2="819.2">
      <stop offset="0.0" stop-color="#ff3399"/>
      <stop offset="0.47058823529411764" stop-color="#ffffff"/>
      <stop offset="1.0" stop-color="#ff3399"/>
    </linearGradient>
    <linearGradient gradientTransform="matrix(0.0015, 0.0015, -0.0047, 0.0047, 25.1, 30.1)" gradientUnits="userSpaceOnUse" id="gradient3" spreadMethod="pad" x1="-819.2" x2="819.2">
      <stop offset="0.0" stop-color="#ff3399"/>
      <stop offset="1.0" stop-color="#830143"/>
    </linearGradient>
    <linearGradient gradientTransform="matrix(0.0019, -0.0032, 0.0082, 0.0047, 30.75, 29.25)" gradientUnits="userSpaceOnUse" id="gradient4" spreadMethod="pad" x1="-819.2" x2="819.2">
      <stop offset="0.0" stop-color="#ff3399"/>
      <stop offset="1.0" stop-color="#830143"/>
    </linearGradient>
    <linearGradient gradientTransform="matrix(0.0026, 0.0045, -0.0048, 0.0028, 44.5, 28.2)" gradientUnits="userSpaceOnUse" id="gradient5" spreadMethod="pad" x1="-819.2" x2="819.2">
      <stop offset="0.0" stop-color="#ff3399"/>
      <stop offset="0.47058823529411764" stop-color="#ffffff"/>
      <stop offset="1.0" stop-color="#ff3399"/>
    </linearGradient>
    <linearGradient gradientTransform="matrix(-0.0043, -0.0043, 0.0049, -0.0049, 30.8, 40.1)" gradientUnits="userSpaceOnUse" id="gradient6" spreadMethod="pad" x1="-819.2" x2="819.2">
      <stop offset="0.0" stop-color="#ff3399"/>
      <stop offset="1.0" stop-color="#830143"/>
    </linearGradient>
    <linearGradient gradientTransform="matrix(0.0095, 0.0, 0.0, 0.0049, 24.25, 41.05)" gradientUnits="userSpaceOnUse" id="gradient7" spreadMethod="pad" x1="-819.2" x2="819.2">
      <stop offset="0.0" stop-color="#ff3399"/>
      <stop offset="0.47058823529411764" stop-color="#ffffff"/>
      <stop offset="1.0" stop-color="#ff3399"/>
    </linearGradient>
  </defs>
</svg>
